packages/ckeditor5-icons/theme/icons/maximize.svg

<svg viewBox="0 0 20 20" xmlns="http://www.w3.org/2000/svg">
<path d="M16.7535 2.50098C17.1678 2.50098 17.5035 2.83676 17.5035 3.25098V8.45053C17.5035 8.86474 17.1678 9.20052 16.7535 9.20052C16.3393 9.20052 16.0035 8.86474 16.0035 8.45052L16.0035 5.06164L11.9806 9.08461C11.6877 9.3775 11.2128 9.3775 10.9199 9.08461C10.627 8.79171 10.627 8.31684 10.9199 8.02395L14.9429 4.00098L11.554 4.00098C11.1398 4.00098 10.804 3.66519 10.804 3.25098C10.804 2.83676 11.1398 2.50098 11.554 2.50098L16.7535 2.50098Z"/>
<path d="M3.25049 17.5044C2.83628 17.5044 2.50049 17.1686 2.50049 16.7544L2.50049 11.5548C2.50049 11.1406 2.83627 10.8048 3.25049 10.8048C3.6647 10.8048 4.00049 11.1406 4.00049 11.5548V14.9437L8.02346 10.9207C8.31635 10.6278 8.79123 10.6278 9.08412 10.9207C9.37701 11.2136 9.37701 11.6885 9.08412 11.9814L5.06115 16.0044H8.45004C8.86425 16.0044 9.20004 16.3402 9.20004 16.7544C9.20004 17.1686 8.86425 17.5044 8.45004 17.5044H3.25049Z"/>
</svg>

<svg xmlns="http://www.w3.org/2000/svg" viewBox="0 0 20 20"><path d="M16.754 2.501a.75.75 0 0 1 .75.75v5.2a.75.75 0 1 1-1.5 0V5.06L11.98 9.086a.75.75 0 0 1-1.061-1.061L14.943 4h-3.389a.75.75 0 0 1 0-1.5zM3.25 17.504a.75.75 0 0 1-.75-.75v-5.2a.75.75 0 0 1 1.5 0v3.39l4.023-4.023a.75.75 0 1 1 1.061 1.06l-4.023 4.023H8.45a.75.75 0 0 1 0 1.5z"/></svg>
